X:1
T:Kattugglans polska
R:Polska
S:Femtio polskor frn Wermland och Dal (nr 41).
Z:C-G Magnusson, 2008-10-06
O:\~nr, Dalsland
N:Sngpolska, spelas lngsamt
M:3/4
L:1/8
Q:100
K:Gm
A2 B2 A>G | (AB) (3ABA ^FG | A2 B>A ^FG | A4 G2 :|
|: G2 G>A B>c | d2 d3 e | d2 c>B A>G | ^F2 G2 z2 :|
